X: 4992
T: Brendan Tonra's
R: jig
M: 6/8
K: Dmajor
E|F3 AFe|edB ABd|FEF GFG|ABF AFE|
F3 AFe|edB ABd|FEF GFG|BAF D2:|
e|f2d dcd|edc Bcd|f2d dcd|AdF Ade|
f2d dcd|edc Bcd|faf gec|dAF D2:|

